X: 8100
T: Contentment Is Wealth
R: jig
M: 6/8
K: Edorian
|:F|GFG Eed|BAB E2 G|FEF DdB|AFD Def|
gfe edB|BAB dcd|B/c/dB AGF|GEE E2:|
|:f|gbe gbe|gfg bag|fdd Add|fdf afd|
gfe edB|BAB dcd|B/c/dB AGF|GEE E2:|

